azure-patterns/svg-wrench-clipboard.svg

<svg xmlns="http://www.w3.org/2000/svg" viewBox="0 0 157 156">
                                
                            
<path d="M134.357 14.8572H45.2144V148.571H134.357V14.8572Z" fill="#0078D4"></path>
<path d="M119.5 7.42871H60.0713V22.2859H119.5V7.42871Z" fill="black"></path>
<path d="M102.166 74.2858L82.357 54.4763L100.21 36.623C93.5647 33.8608 86.2543 33.1108 79.1862 34.4661C72.1182 35.8215 65.6037 39.2224 60.4513 44.247C55.2988 49.2715 51.7352 55.6985 50.2027 62.7302C48.6702 69.7619 49.2362 77.0889 51.8305 83.8018L12.4219 123.208C9.6466 126 8.08887 129.777 8.08887 133.714C8.08887 137.651 9.6466 141.428 12.4219 144.221V144.221C15.2143 146.996 18.9914 148.554 22.9284 148.554C26.8654 148.554 30.6425 146.996 33.4349 144.221L72.841 104.812C79.5536 107.406 86.8802 107.972 93.9116 106.44C100.943 104.907 107.37 101.344 112.394 96.1917C117.418 91.0397 120.819 84.5257 122.175 77.4581C123.531 70.3906 122.781 63.0805 120.02 56.435L102.166 74.2858ZM28.1804 138.966C27.1416 140.006 25.8179 140.713 24.3769 141C22.9358 141.287 21.4421 141.14 20.0845 140.578C18.727 140.016 17.5667 139.063 16.7503 137.842C15.934 136.62 15.4982 135.184 15.4982 133.714C15.4982 132.245 15.934 130.809 16.7503 129.587C17.5667 128.365 18.727 127.413 20.0845 126.851C21.4421 126.289 22.9358 126.142 24.3769 126.429C25.8179 126.716 27.1416 127.423 28.1804 128.462C29.573 129.855 30.3554 131.745 30.3554 133.714C30.3554 135.684 29.573 137.573 28.1804 138.966V138.966Z" fill="#50E6FF"></path>
</svg>

<svg xmlns="http://www.w3.org/2000/svg" viewBox="0 0 157 156"><path d="M134.357 14.857H45.214v133.714h89.143V14.857z" fill="#0078D4"/><path d="M119.5 7.429H60.071v14.857H119.5V7.429z"/><path d="M102.166 74.286l-19.809-19.81 17.853-17.853a36.746 36.746 0 0 0-48.38 47.179l-39.408 39.406a14.902 14.902 0 0 0 0 21.013 14.906 14.906 0 0 0 21.013 0l39.406-39.409a36.75 36.75 0 0 0 39.553-8.62 36.752 36.752 0 0 0 7.626-39.757l-17.854 17.85zm-73.986 64.68a7.424 7.424 0 0 1-8.096 1.612 7.432 7.432 0 0 1-4.586-6.864 7.43 7.43 0 1 1 12.682 5.252z" fill="#50E6FF"/></svg>
